apps/penxle.com/src/assets/icons/calender.svg

<svg fill="currentColor" viewBox="0 0 21 22" xmlns="http://www.w3.org/2000/svg">
  <path
    id="Vector"
    d="M3.56107 20.0451L4.00191 19.4383L3.56107 20.0451ZM2.45491 18.9389L3.06168 18.4981L2.45491 18.9389ZM18.5451 18.9389L17.9383 18.4981L18.5451 18.9389ZM17.4389 20.0451L17.8798 20.6518L17.4389 20.0451ZM17.4389 3.95492L17.8798 3.34815L17.4389 3.95492ZM18.5451 5.06107L17.9383 5.50191L18.5451 5.06107ZM3.56107 3.95492L4.00191 4.56168H4.00191L3.56107 3.95492ZM2.45491 5.06107L3.06168 5.50191L2.45491 5.06107ZM17.7178 15.0616L17.6005 14.3208H17.6005L17.7178 15.0616ZM13.5616 19.2178L12.8208 19.1005V19.1005L13.5616 19.2178ZM12.75 4C12.75 4.41421 13.0858 4.75 13.5 4.75C13.9142 4.75 14.25 4.41421 14.25 4H12.75ZM14.25 1C14.25 0.585786 13.9142 0.25 13.5 0.25C13.0858 0.25 12.75 0.585786 12.75 1H14.25ZM6.75 4C6.75 4.41421 7.08579 4.75 7.5 4.75C7.91421 4.75 8.25 4.41421 8.25 4H6.75ZM8.25 1C8.25 0.585786 7.91421 0.25 7.5 0.25C7.08579 0.25 6.75 0.585786 6.75 1H8.25ZM19.4711 15L20.2206 15.0257L19.4711 15ZM13.5 20.9711L13.5257 21.7206L13.5 20.9711ZM10.5 20.25C8.60843 20.25 7.24999 20.249 6.19804 20.135C5.16013 20.0225 4.50992 19.8074 4.00191 19.4383L3.12023 20.6518C3.92656 21.2377 4.87094 21.5 6.03648 21.6263C7.18798 21.751 8.64184 21.75 10.5 21.75V20.25ZM0.75 12C0.75 13.8582 0.748971 15.312 0.873728 16.4635C1.00001 17.6291 1.26232 18.5734 1.84815 19.3798L3.06168 18.4981C2.69259 17.9901 2.47745 17.3399 2.365 16.302C2.25103 15.25 2.25 13.8916 2.25 12H0.75ZM4.00191 19.4383C3.64111 19.1762 3.32382 18.8589 3.06168 18.4981L1.84815 19.3798C2.20281 19.8679 2.63209 20.2972 3.12023 20.6518L4.00191 19.4383ZM17.9383 18.4981C17.6762 18.8589 17.3589 19.1762 16.9981 19.4383L17.8798 20.6518C18.3679 20.2972 18.7972 19.8679 19.1518 19.3798L17.9383 18.4981ZM20.25 12C20.25 10.1418 20.251 8.68798 20.1263 7.53648C20 6.37094 19.7377 5.42656 19.1518 4.62023L17.9383 5.50191C18.3074 6.00992 18.5225 6.66013 18.635 7.69804C18.749 8.74999 18.75 10.1084 18.75 12H20.25ZM16.9981 4.56168C17.3589 4.82382 17.6762 5.14111 17.9383 5.50191L19.1518 4.62023C18.7972 4.13209 18.3679 3.70281 17.8798 3.34815L16.9981 4.56168ZM2.25 12C2.25 10.1084 2.25103 8.74999 2.365 7.69804C2.47745 6.66013 2.69259 6.00992 3.06168 5.50191L1.84815 4.62023C1.26232 5.42656 1.00001 6.37094 0.873728 7.53648C0.748971 8.68798 0.75 10.1418 0.75 12H2.25ZM3.12023 3.34815C2.63209 3.70281 2.20281 4.13209 1.84815 4.62023L3.06168 5.50191C3.32382 5.14111 3.64111 4.82382 4.00191 4.56168L3.12023 3.34815ZM17.6005 14.3208C15.1401 14.7105 13.2105 16.6401 12.8208 19.1005L14.3023 19.3352C14.5904 17.5166 16.0166 16.0904 17.8352 15.8023L17.6005 14.3208ZM8.25 4V3.02893H6.75V4H8.25ZM8.25 3.02893V1H6.75V3.02893H8.25ZM10.5 2.25C9.33522 2.25 8.33424 2.24991 7.47432 2.27937L7.52568 3.77849C8.35445 3.75009 9.32692 3.75 10.5 3.75V2.25ZM7.47432 2.27937C5.60087 2.34356 4.2239 2.5463 3.12023 3.34815L4.00191 4.56168C4.70746 4.04907 5.67075 3.84204 7.52568 3.77849L7.47432 2.27937ZM14.25 4V3.02893H12.75V4H14.25ZM14.25 3.02893V1H12.75V3.02893H14.25ZM10.5 3.75C11.6731 3.75 12.6456 3.75009 13.4743 3.77849L13.5257 2.27937C12.6658 2.24991 11.6648 2.25 10.5 2.25V3.75ZM13.4743 3.77849C15.3292 3.84204 16.2925 4.04907 16.9981 4.56168L17.8798 3.34815C16.7761 2.5463 15.3991 2.34356 13.5257 2.27937L13.4743 3.77849ZM19.4711 14.25C18.5888 14.25 18.0579 14.2484 17.6005 14.3208L17.8352 15.8023C18.147 15.7529 18.5338 15.75 19.4711 15.75L19.4711 14.25ZM18.75 12C18.75 13.1731 18.7499 14.1456 18.7215 14.9743L20.2206 15.0257C20.2501 14.1658 20.25 13.1648 20.25 12H18.75ZM18.7215 14.9743C18.658 16.8292 18.4509 17.7925 17.9383 18.4981L19.1518 19.3798C19.9537 18.2761 20.1564 16.8991 20.2206 15.0257L18.7215 14.9743ZM14.25 20.9711C14.25 20.0338 14.2529 19.647 14.3023 19.3352L12.8208 19.1005C12.7484 19.5579 12.75 20.0888 12.75 20.9711L14.25 20.9711ZM10.5 21.75C11.6648 21.75 12.6658 21.7501 13.5257 21.7206L13.4743 20.2215C12.6456 20.2499 11.6731 20.25 10.5 20.25V21.75ZM13.5257 21.7206C15.3991 21.6564 16.7761 21.4537 17.8798 20.6518L16.9981 19.4383C16.2925 19.9509 15.3292 20.158 13.4743 20.2215L13.5257 21.7206Z"
  />
  <g>
    <path
      d="M6.5 8C6.5 8.55228 6.05228 9 5.5 9C4.94772 9 4.5 8.55228 4.5 8C4.5 7.44772 4.94772 7 5.5 7C6.05228 7 6.5 7.44772 6.5 8Z"
    />
    <path
      d="M6.5 12C6.5 12.5523 6.05228 13 5.5 13C4.94772 13 4.5 12.5523 4.5 12C4.5 11.4477 4.94772 11 5.5 11C6.05228 11 6.5 11.4477 6.5 12Z"
    />
    <path
      d="M11.5 8C11.5 8.55228 11.0523 9 10.5 9C9.94772 9 9.5 8.55228 9.5 8C9.5 7.44772 9.94772 7 10.5 7C11.0523 7 11.5 7.44772 11.5 8Z"
    />
    <path
      d="M11.5 12C11.5 12.5523 11.0523 13 10.5 13C9.94772 13 9.5 12.5523 9.5 12C9.5 11.4477 9.94772 11 10.5 11C11.0523 11 11.5 11.4477 11.5 12Z"
    />
    <path
      d="M11.5 16C11.5 16.5523 11.0523 17 10.5 17C9.94772 17 9.5 16.5523 9.5 16C9.5 15.4477 9.94772 15 10.5 15C11.0523 15 11.5 15.4477 11.5 16Z"
    />
    <path
      d="M16.5 8C16.5 8.55228 16.0523 9 15.5 9C14.9477 9 14.5 8.55228 14.5 8C14.5 7.44772 14.9477 7 15.5 7C16.0523 7 16.5 7.44772 16.5 8Z"
    />
    <path
      d="M16.5 12C16.5 12.5523 16.0523 13 15.5 13C14.9477 13 14.5 12.5523 14.5 12C14.5 11.4477 14.9477 11 15.5 11C16.0523 11 16.5 11.4477 16.5 12Z"
    />
    <path
      d="M6.5 16C6.5 16.5523 6.05228 17 5.5 17C4.94772 17 4.5 16.5523 4.5 16C4.5 15.4477 4.94772 15 5.5 15C6.05228 15 6.5 15.4477 6.5 16Z"
    />
  </g>
</svg>

<svg xmlns="http://www.w3.org/2000/svg" fill="currentColor" viewBox="0 0 21 22">
  <path
    d="m3.561 20.045.44-.607-.44.607ZM2.455 18.94l.607-.44-.607.44Zm16.09 0-.607-.44.607.44Zm-1.106 1.106.44.607-.44-.607Zm0-16.09.44-.607-.44.607Zm1.106 1.106-.607.44.607-.44ZM3.561 3.955l.44.607-.44-.607ZM2.455 5.06l.607.44-.607-.44Zm15.263 10-.117-.74.117.74Zm-4.156 4.157-.741-.117.74.117ZM12.75 4a.75.75 0 0 0 1.5 0h-1.5Zm1.5-3a.75.75 0 0 0-1.5 0h1.5Zm-7.5 3a.75.75 0 0 0 1.5 0h-1.5Zm1.5-3a.75.75 0 0 0-1.5 0h1.5Zm11.221 14 .75.026-.75-.026ZM13.5 20.971l.026.75-.026-.75Zm-3-.721c-1.892 0-3.25-.001-4.302-.115-1.038-.113-1.688-.328-2.196-.697l-.882 1.214c.807.586 1.75.848 2.916.974 1.152.125 2.606.124 4.464.124v-1.5ZM.75 12c0 1.858-.001 3.312.124 4.463.126 1.166.388 2.11.974 2.917l1.214-.882c-.37-.508-.585-1.158-.697-2.196-.114-1.052-.115-2.41-.115-4.302H.75Zm3.252 7.438a4.25 4.25 0 0 1-.94-.94l-1.214.882a5.75 5.75 0 0 0 1.272 1.272l.882-1.214Zm13.936-.94c-.262.36-.58.678-.94.94l.882 1.214a5.749 5.749 0 0 0 1.272-1.272l-1.214-.882ZM20.25 12c0-1.858.001-3.312-.124-4.464-.126-1.165-.388-2.11-.974-2.916l-1.214.882c.37.508.585 1.158.697 2.196.114 1.052.115 2.41.115 4.302h1.5Zm-3.252-7.438c.36.262.678.58.94.94l1.214-.882a5.75 5.75 0 0 0-1.272-1.272l-.882 1.214ZM2.25 12c0-1.892.001-3.25.115-4.302.112-1.038.328-1.688.697-2.196L1.848 4.62C1.262 5.427 1 6.37.874 7.536.749 8.688.75 10.142.75 12h1.5Zm.87-8.652A5.75 5.75 0 0 0 1.848 4.62l1.214.882c.262-.36.58-.678.94-.94L3.12 3.348ZM17.6 14.321a5.75 5.75 0 0 0-4.78 4.78l1.482.234a4.25 4.25 0 0 1 3.533-3.533l-.235-1.481ZM8.25 4v-.971h-1.5V4h1.5Zm0-.971V1h-1.5v2.029h1.5Zm2.25-.779c-1.165 0-2.166 0-3.026.03l.052 1.498A92.348 92.348 0 0 1 10.5 3.75v-1.5Zm-3.026.03c-1.873.064-3.25.266-4.354 1.068l.882 1.214c.705-.513 1.669-.72 3.524-.784L7.474 2.28ZM14.25 4v-.971h-1.5V4h1.5Zm0-.971V1h-1.5v2.029h1.5Zm-3.75.721c1.173 0 2.146 0 2.974.028l.052-1.499c-.86-.03-1.861-.029-3.026-.029v1.5Zm2.974.028c1.855.064 2.819.271 3.524.784l.882-1.214c-1.104-.802-2.48-1.004-4.354-1.069l-.052 1.5Zm5.997 10.472c-.882 0-1.413-.002-1.87.07l.234 1.482c.312-.05.699-.052 1.636-.052v-1.5ZM18.75 12c0 1.173 0 2.146-.029 2.974l1.5.052c.03-.86.029-1.861.029-3.026h-1.5Zm-.029 2.974c-.063 1.855-.27 2.819-.783 3.524l1.214.882c.802-1.104 1.004-2.48 1.069-4.354l-1.5-.052Zm-4.471 5.997c0-.937.003-1.324.052-1.636l-1.481-.235c-.073.458-.071.989-.071 1.871h1.5Zm-3.75.779c1.165 0 2.166 0 3.026-.03l-.052-1.498a92.34 92.34 0 0 1-2.974.028v1.5Zm3.026-.03c1.873-.064 3.25-.266 4.354-1.068l-.882-1.214c-.706.513-1.669.72-3.524.784l.052 1.499ZM6.5 8a1 1 0 1 1-2 0 1 1 0 0 1 2 0ZM6.5 12a1 1 0 1 1-2 0 1 1 0 0 1 2 0ZM11.5 8a1 1 0 1 1-2 0 1 1 0 0 1 2 0ZM11.5 12a1 1 0 1 1-2 0 1 1 0 0 1 2 0ZM11.5 16a1 1 0 1 1-2 0 1 1 0 0 1 2 0ZM16.5 8a1 1 0 1 1-2 0 1 1 0 0 1 2 0ZM16.5 12a1 1 0 1 1-2 0 1 1 0 0 1 2 0ZM6.5 16a1 1 0 1 1-2 0 1 1 0 0 1 2 0Z"
  />
</svg>
